X: 1
T: The Donegal Tinker
R: reel
M: 4/4
L: 1/8
K: Gmaj
d4cAGc|AddB cAGc |Addc AdcA|GEED CDEG |
Ad (3ddd fd (3ddd|adfd cAGc | Ad (3ddc AdcA |GE (3EED CDEG |
AD (3DDD A,D (3DDD|ADAd cAGc| ADFA (3EEE EG|AdcA G4|
AD (3DDD A,D (3DDD |ADAd cAGc| ADFA (3EEE EG|AdcA GcAG |
Ad (3ddd c2Ac |dA (3AAA afgf|Ad d2c3A |cdefg2 fg|
d4c2Ac|d2 (3AAA afgf|Ad d2c3A|(3Bcd efg2 fg|
ad (3ddd adbd |ad (3ddd adgd|ad (3ddd ad gd|^cdef g2fg|
a2 (3ddd bd (3ddd |adfg adfg |abaf gfed |^cdef gefe|


Tune 1770	Setting 15217

